packages/foundations/assets/icons/functional/images/transportation/bus_32_inverted.svg

<svg width="32" height="32" viewBox="0 0 32 32" fill="none" xmlns="http://www.w3.org/2000/svg">
<g clip-path="url(#clip0_2214_6682)">
<path fill-rule="evenodd" clip-rule="evenodd" d="M9.58538 3.07588H22.4151C23.5912 3.09243 24.2171 3.22808 24.8664 3.57528C25.5034 3.91596 26.0084 4.42098 26.3491 5.058C26.6963 5.70721 26.8319 6.33311 26.8485 7.50929L26.8502 24.0012C26.8502 24.7391 26.7728 25.1398 26.5494 25.5576C26.41 25.8183 26.2251 26.0439 26.0017 26.2276L26.0002 27.9241C26.0002 28.4764 25.5525 28.9241 25.0002 28.9241H23.0002C22.4479 28.9241 22.0002 28.4764 22.0002 27.9241L22 26.7741H10L10.0002 27.9241C10.0002 28.4764 9.55251 28.9241 9.00022 28.9241H7.00022C6.44794 28.9241 6.00022 28.4764 6.00022 27.9241L5.99915 26.2279C5.77555 26.0442 5.59051 25.8184 5.45103 25.5576C5.24995 25.1816 5.16716 24.8195 5.15261 24.2128L5.15198 7.50929C5.16852 6.33311 5.30418 5.70721 5.65138 5.058C5.99206 4.42098 6.49708 3.91596 7.1341 3.57528C7.78331 3.22808 8.40921 3.09243 9.58538 3.07588ZM8.35022 21.6741C7.52222 21.6741 6.85022 22.3461 6.85022 23.1741C6.85022 24.0031 7.52222 24.6741 8.35022 24.6741C9.17922 24.6741 9.85022 24.0031 9.85022 23.1741C9.85022 22.3461 9.17922 21.6741 8.35022 21.6741ZM23.6502 21.6741C22.8222 21.6741 22.1502 22.3461 22.1502 23.1741C22.1502 24.0031 22.8222 24.6741 23.6502 24.6741C24.4792 24.6741 25.1502 24.0031 25.1502 23.1741C25.1502 22.3461 24.4792 21.6741 23.6502 21.6741ZM25.15 7.92413H6.85102L6.85022 18.9667C10 19.4604 13.232 19.6741 16.0002 19.6741C19.0499 19.6741 22.0998 19.4383 25.1504 18.9667L25.15 7.92413ZM29 9.08943C29.4334 9.08943 29.85 9.44027 29.8434 9.93943L29.85 12.9394C29.85 13.4089 29.4695 13.7894 29 13.7894C28.5667 13.7894 28.1566 13.4451 28.1566 12.9394L28.15 9.93943C28.15 9.46998 28.5306 9.08943 29 9.08943ZM3.00002 9.08943C3.43336 9.08943 3.85002 9.42685 3.85002 9.93943V12.9394C3.85002 13.4089 3.46947 13.7894 3.00002 13.7894C2.56669 13.7894 2.15002 13.435 2.15002 12.9394V9.93943C2.15002 9.46998 2.53058 9.08943 3.00002 9.08943ZM11.0002 4.07413C10.4972 4.08075 10.1502 4.4908 10.1502 4.92413C10.1502 5.35746 10.4918 5.77413 11.0002 5.77413L21.0125 5.7675C21.4928 5.77413 21.8502 5.35746 21.8502 4.92413C21.8502 4.4908 21.5105 4.07413 21.0125 4.08075L11.0002 4.07413Z" fill="#1A1C1F"/>
</g>
<defs>
<clipPath id="clip0_2214_6682">
<rect width="32" height="32" fill="white"/>
</clipPath>
</defs>
</svg>

<svg xmlns="http://www.w3.org/2000/svg" width="32" height="32" fill="none"><g clip-path="url(#a)"><path fill="#1A1C1F" fill-rule="evenodd" d="M9.585 3.076h12.83c1.176.016 1.802.152 2.451.5.637.34 1.142.845 1.483 1.482.347.65.483 1.275.5 2.451l.001 16.492c0 .738-.077 1.139-.3 1.557q-.212.392-.548.67L26 27.924a1 1 0 0 1-1 1h-2a1 1 0 0 1-1-1v-1.15H10v1.15a1 1 0 0 1-1 1H7a1 1 0 0 1-1-1v-1.696a2.2 2.2 0 0 1-.549-.67c-.201-.376-.284-.738-.298-1.345L5.152 7.509c.017-1.176.152-1.802.5-2.451a3.58 3.58 0 0 1 1.482-1.483c.65-.347 1.275-.483 2.451-.5M8.35 21.674a1.5 1.5 0 1 0 .001 3.001 1.5 1.5 0 0 0 0-3m15.3 0a1.5 1.5 0 1 0 .001 3.001 1.5 1.5 0 0 0 0-3m1.5-13.75H6.851v11.043c3.149.493 6.381.707 9.15.707q4.574 0 9.15-.707zM29 9.09c.433 0 .85.351.843.85l.007 3c0 .47-.38.85-.85.85a.844.844 0 0 1-.843-.85l-.007-3c0-.469.38-.85.85-.85m-26 0c.433 0 .85.338.85.85v3a.85.85 0 1 1-1.7 0v-3c0-.469.38-.85.85-.85m8-5.015a.855.855 0 0 0-.85.85c0 .433.342.85.85.85l10.013-.006c.48.006.837-.41.837-.844 0-.433-.34-.85-.838-.843z" clip-rule="evenodd"/></g><defs><clipPath id="a"><path fill="#fff" d="M0 0h32v32H0z"/></clipPath></defs></svg>
